public/fonts/icons/note-dark.svg

<?xml version="1.0" encoding="utf-8"?>

<!DOCTYPE svg PUBLIC "-//W3C//DTD SVG 1.1//EN" "http://www.w3.org/Graphics/SVG/1.1/DTD/svg11.dtd">
<svg version="1.1" xmlns="http://www.w3.org/2000/svg" xmlns:xlink="http://www.w3.org/1999/xlink" width="32" height="32" viewBox="0 0 32 32">
<g>
</g>
	<path d="M29.999 17.375c-0.006-7.576-0.118-11.375-0.118-11.375s0.119-4-3.881-4-20 0-20 0-4 0-4 4 0 20 0 20 0.065 4 4 4c3.822 0 3.050 0 9.438 0h2.625l11.937-10-0.001-2.625zM6 8.519h20v1h-20v-1zM6 12.476h20v1h-20v-1zM6 17.476v-1h12v1h-12zM17.873 27.889c0.837-2.934 0.377-7.889 0.377-7.889s5.1 0.68 8.58 0.123l-8.957 7.766z" fill="#000000"></path>
</svg>

<svg xmlns="http://www.w3.org/2000/svg" width="32" height="32" viewBox="0 0 32 32"><title>Note</title><path d="M30 17.375C29.992 9.8 29.88 6 29.88 6S30 2 26 2H6S2 2 2 6v20s.065 4 4 4h12.063L30 20v-2.625zM6 8.52h20v1H6v-1zm0 3.956h20v1H6v-1zm0 5v-1h12v1H6zM17.873 27.89c.837-2.935.377-7.89.377-7.89s5.1.68 8.58.123l-8.957 7.766z"/></svg>
